X:34
T:score127
L:1/4
Q:1/4=96
M:3/4
I:linebreak $
K:Amin
!p! e | e3/2 d/4c/4 B | c2 B | A G A | B G g |$ g3/2 f/4e/4 d | e2 z | ^G2 A | z B ^c | d2 E |$ %10
 ^F ^G A | B2 B | ^c2 z |] %13
